X: 7700
T: Colleens Lullaby
R: waltz
M: 3/4
K: Gmajor
|:"G" D3 E DE|"G" B6|"G" d3 B ed|"G" B6|
"D" A3 B AB|"D7" c2 A2 FD|"C" E2 D2 E2|"G" B6|
"G" D3 E DE|"G" B6|"G" d3 B ed|"G" B6|"
"D7" AB dc BA|"D7" c2 B2 A2|"D7" Bd dc AF|"G" G6:|
|:"G" dB ed Bd|"G" gd ed Bd|"G" dc cB BA|"D" A6|
"D" a2- ag fe|"D7" de c2 d2|"D7" dB Be dc|"G" B6|
"G" dB ed Bd|"G" gd ed Bd|"G" dc cB BA|"D" A6|
"D" ab ag fe|"D7" de ed cA|"G" Bd dc AF|"G" G6:|

